dist/flags/l/010.svg

<svg width="32" height="24" viewBox="0 0 32 24" fill="none" xmlns="http://www.w3.org/2000/svg">
<mask id="mask0" mask-type="alpha" maskUnits="userSpaceOnUse" x="0" y="0" width="32" height="24">
<rect width="32" height="24" fill="white"/>
</mask>
<g mask="url(#mask0)">
<path fill-rule="evenodd" clip-rule="evenodd" d="M0 0V24H32V0H0Z" fill="#5196ED"/>
<mask id="mask1" mask-type="alpha" maskUnits="userSpaceOnUse" x="0" y="0" width="32" height="24">
<path fill-rule="evenodd" clip-rule="evenodd" d="M0 0V24H32V0H0Z" fill="white"/>
</mask>
<g mask="url(#mask1)">
<path fill-rule="evenodd" clip-rule="evenodd" d="M8.71741 7.89376C8.71741 7.89376 10.7815 9.02624 11.0686 9.33948C11.3555 9.65278 11.8155 10.8032 12.5328 10.1526C13.2502 9.50226 13.9675 10.0079 13.9675 8.9717C13.9675 7.93558 15.0385 5.53204 16.5926 6.13434C18.1469 6.73658 19.4247 6.35982 19.7832 6.6006C20.142 6.84154 21.0028 8.03802 21.6722 8.03802C22.3419 8.03802 22.6764 8.7367 22.7244 9.74876C22.772 10.7609 22.5093 10.8576 23.1308 10.9782C23.7526 11.0986 23.9916 11.5566 23.681 12.1589C23.3701 12.7613 23.3938 12.4962 23.4417 13.1228C23.4897 13.7493 22.8202 17.444 20.7634 17.8058C18.7069 18.1671 16.7576 17.9745 17.2839 17.2754C17.8099 16.5768 18.5381 15.7727 17.4623 15.604C16.386 15.4351 15.7078 15.2915 14.6317 15.5806C13.5555 15.8698 12.4317 16.3274 11.7619 15.4602C11.0924 14.5926 11.2361 13.9661 10.6861 13.5564C10.1362 13.1468 9.46638 13.2191 10.0166 12.4239C10.5663 11.6287 11.0206 11.9256 10.5663 11.2991C10.1123 10.6728 8.39739 10.3998 8.39739 9.77352C8.39739 9.14674 7.30659 7.77324 8.71741 7.89376Z" fill="#F5F8FB"/>
</g>
</g>
</svg>

<svg width="32" height="24" fill="none" xmlns="http://www.w3.org/2000/svg">
  <mask id="a" maskUnits="userSpaceOnUse" x="0" y="0" width="32" height="24">
    <path fill="#fff" d="M0 0h32v24H0z"/>
  </mask>
  <g mask="url(#a)">
    <path fill-rule="evenodd" clip-rule="evenodd" d="M0 0v24h32V0H0z" fill="#5196ED"/>
    <mask id="b" maskUnits="userSpaceOnUse" x="0" y="0" width="32" height="24">
      <path fill-rule="evenodd" clip-rule="evenodd" d="M0 0v24h32V0H0z" fill="#fff"/>
    </mask>
    <g mask="url(#b)">
      <path fill-rule="evenodd" clip-rule="evenodd" d="M8.717 7.894s2.064 1.132 2.352 1.445c.286.314.746 1.464 1.464.814.717-.65 1.434-.145 1.434-1.181s1.072-3.44 2.626-2.838c1.554.603 2.832.226 3.19.467.359.24 1.22 1.437 1.89 1.437.669 0 1.003.699 1.051 1.71.048 1.013-.215 1.11.407 1.23.622.12.86.579.55 1.18-.31.603-.287.338-.24.965.049.626-.62 4.321-2.678 4.683-2.056.361-4.005.168-3.48-.53.527-.7 1.255-1.503.18-1.672-1.077-.169-1.755-.313-2.831-.023-1.076.289-2.2.746-2.87-.12-.67-.868-.526-1.495-1.076-1.905-.55-.41-1.22-.337-.67-1.132.55-.795 1.005-.498.55-1.125-.454-.626-2.169-.9-2.169-1.525 0-.627-1.09-2 .32-1.88z" fill="#F5F8FB"/>
    </g>
  </g>
</svg>
